dist/svgs/devui-icons/op/layout.svg

<?xml version="1.0" encoding="UTF-8"?>
<svg width="16px" height="16px" viewBox="0 0 16 16" version="1.1" xmlns="http://www.w3.org/2000/svg" xmlns:xlink="http://www.w3.org/1999/xlink">
    <title>操作/布局</title>
    <desc>Created with Sketch.</desc>
    <g id="操作/布局" stroke="none" stroke-width="1" fill="none" fill-rule="evenodd">
        <g id="布局" fill="#293040">
            <path d="M2,1 L14,1 C14.5522847,1 15,1.44771525 15,2 L15,4 C15,4.55228475 14.5522847,5 14,5 L2,5 C1.44771525,5 1,4.55228475 1,4 L1,2 C1,1.44771525 1.44771525,1 2,1 Z M2,6 L4,6 C4.55228475,6 5,6.44771525 5,7 L5,14 C5,14.5522847 4.55228475,15 4,15 L2,15 C1.44771525,15 1,14.5522847 1,14 L1,7 C1,6.44771525 1.44771525,6 2,6 Z M7,6 L14,6 C14.5522847,6 15,6.44771525 15,7 L15,14 C15,14.5522847 14.5522847,15 14,15 L7,15 C6.44771525,15 6,14.5522847 6,14 L6,7 C6,6.44771525 6.44771525,6 7,6 Z" id="形状"></path>
        </g>
    </g>
</svg>

<svg xmlns="http://www.w3.org/2000/svg" viewBox="0 0 16 16"><path fill-rule="evenodd" d="M2 1h12a1 1 0 011 1v2a1 1 0 01-1 1H2a1 1 0 01-1-1V2a1 1 0 011-1zm0 5h2a1 1 0 011 1v7a1 1 0 01-1 1H2a1 1 0 01-1-1V7a1 1 0 011-1zm5 0h7a1 1 0 011 1v7a1 1 0 01-1 1H7a1 1 0 01-1-1V7a1 1 0 011-1z"/></svg>
